resources/icons/scopy-light/icons/info.svg

<?xml version="1.0" encoding="UTF-8"?>
<svg width="20px" height="20px" version="1.1" viewBox="0 0 20 20" xmlns="http://www.w3.org/2000/svg">
 <g fill="none" fill-rule="evenodd">
  <g fill="#000" opacity=".6">
   <path d="m10 20c5.5228 0 10-4.4772 10-10s-4.4772-10-10-10-10 4.4772-10 10 4.4772 10 10 10zm0-2c-4.4183 0-8-3.5817-8-8s3.5817-8 8-8 8 3.5817 8 8-3.5817 8-8 8z" fill-rule="nonzero"/>
   <path d="m9 7v-2h2v2h-2zm0 8v-7h2v7h-2z"/>
  </g>
 </g>
</svg>

<?xml version="1.0" encoding="UTF-8" standalone="no"?>
<svg width="32" height="32" viewBox="0 0 32 32" version="1.1" xmlns="http://www.w3.org/2000/svg" xmlns:xlink="http://www.w3.org/1999/xlink">
  <g fill="#000" opacity=".6" transform="matrix(1 0 0 1 6 6)">
    <path d="M10 20 C15.52 20 20 15.52 20 10 C20 4.48 15.52 0 10 0 C4.48 0 0 4.48 0 10 C0 15.52 4.48 20 10 20 Z M10 18 C5.58 18 2 14.42 2 10 C2 5.58 5.58 2 10 2 C14.42 2 18 5.58 18 10 C18 14.42 14.42 18 10 18 Z"/>
    <path fill-rule="evenodd" d="M9 7 L9 5 L11 5 L11 7 Z M9 15 L9 8 L11 8 L11 15 Z"/>
  </g>
</svg>
